!!!COM: Music21
!!!OTL: Alalá
!!!OMV: pezas_alalas_alala-30_alala-partitura.musicxml
**kern
*I"Voz
*I'Vo.
*clefG2
*k[]
*M3/4
=1
2r
*MM90
!LO:TX:a:t=[quarter]=90
8fL
8gJ
=
4.a
8b
8gL
8aJ
=||
*M2/4
8gL
8fJ
8gL
8aJ
=||
*M3/4
4.b
8cc
8aL
8ccJ
=
8bL
8gJ
[2a
=
4.a]
8r
8fL
8gJ
!!linebreak:original
=
4.a
8b
8gL
8aJ
=||
*M2/4
8gL
8fJ
8bL
8ccJ
=||
*M3/4
4.a
8f
8gL
8aJ
=
4g
2f
==
*-
